openmetadata-ui/src/main/resources/ui/src/assets/svg/ic-star.svg

<svg width="14" height="14" viewBox="0 0 14 14" fill="none" xmlns="http://www.w3.org/2000/svg">
<path d="M10.2721 12.9898C10.106 12.9899 9.94245 12.9493 9.79566 12.8717L7.06873 11.4384C7.04759 11.4271 7.024 11.4212 7.00004 11.4212C6.97608 11.4212 6.95248 11.4271 6.93135 11.4384L4.20485 12.8717C4.03589 12.9606 3.84542 13.0004 3.65499 12.9867C3.46456 12.973 3.28177 12.9062 3.12731 12.794C2.97284 12.6818 2.85287 12.5286 2.78096 12.3517C2.70905 12.1749 2.68808 11.9814 2.72041 11.7932L3.24104 8.75741C3.24504 8.73362 3.24314 8.70922 3.23552 8.68633C3.22789 8.66345 3.21476 8.64279 3.19729 8.62616L0.993164 6.47497C0.856315 6.34165 0.759543 6.17266 0.713813 5.98715C0.668083 5.80164 0.675224 5.60704 0.734425 5.42538C0.793626 5.24372 0.902521 5.08228 1.04877 4.95934C1.19502 4.8364 1.37279 4.75688 1.56191 4.72979L4.60823 4.28747C4.63193 4.28402 4.65444 4.27485 4.6738 4.26075C4.69316 4.24665 4.7088 4.22804 4.71935 4.20654L6.08129 1.44372C6.16565 1.27245 6.29627 1.12822 6.45838 1.02736C6.62048 0.926503 6.80759 0.873047 6.99851 0.873047C7.18943 0.873047 7.37653 0.926503 7.53864 1.02736C7.70074 1.12822 7.83137 1.27245 7.91573 1.44372L9.27854 4.20566C9.28918 4.2271 9.30484 4.24565 9.32419 4.25974C9.34354 4.27383 9.366 4.28304 9.38966 4.2866L12.4386 4.72935C12.6276 4.75659 12.8053 4.8362 12.9514 4.95916C13.0976 5.08212 13.2064 5.24352 13.2656 5.42511C13.3247 5.6067 13.3319 5.80123 13.2863 5.98669C13.2407 6.17215 13.144 6.34114 13.0074 6.47454L10.801 8.62441C10.7836 8.64108 10.7705 8.66175 10.7629 8.68462C10.7553 8.70749 10.7534 8.73187 10.7573 8.75566L11.2779 11.7915C11.303 11.9382 11.2957 12.0885 11.2568 12.2321C11.2178 12.3758 11.148 12.5092 11.0522 12.623C10.9564 12.7369 10.837 12.8286 10.7022 12.8916C10.5674 12.9546 10.4205 12.9876 10.2717 12.988L10.2721 12.9898ZM7.00004 10.5459C7.16597 10.5459 7.32938 10.5864 7.47604 10.664L10.2025 12.0968C10.2267 12.1106 10.2543 12.117 10.2821 12.115C10.3098 12.1131 10.3363 12.1029 10.3583 12.0859C10.3812 12.0702 10.399 12.0481 10.4095 12.0224C10.42 11.9966 10.4227 11.9684 10.4174 11.9411L9.89629 8.90485C9.86845 8.74144 9.88066 8.57372 9.93187 8.41606C9.98307 8.25841 10.0717 8.11553 10.1903 7.99966L12.3966 5.84935C12.4163 5.83006 12.4302 5.80565 12.4368 5.77887C12.4433 5.7521 12.4423 5.72402 12.4337 5.69781C12.4252 5.6716 12.4095 5.64831 12.3884 5.63056C12.3673 5.6128 12.3416 5.6013 12.3144 5.59735L9.26585 5.15416C9.10173 5.1304 8.94585 5.06703 8.8117 4.96954C8.67754 4.87205 8.56914 4.74336 8.49585 4.5946L7.13129 1.83222C7.11907 1.8075 7.10018 1.78669 7.07676 1.77214C7.05333 1.75759 7.0263 1.74988 6.99873 1.74988C6.97115 1.74988 6.94412 1.75759 6.9207 1.77214C6.89727 1.78669 6.87838 1.8075 6.86616 1.83222L5.50423 4.59372C5.4309 4.74254 5.32243 4.87126 5.18819 4.96876C5.05395 5.06625 4.89799 5.12959 4.73379 5.15329L1.68573 5.59735C1.65839 5.60122 1.63268 5.61268 1.61154 5.63044C1.5904 5.6482 1.57467 5.67154 1.56614 5.69781C1.55762 5.72407 1.55664 5.7522 1.56332 5.77899C1.56999 5.80578 1.58406 5.83016 1.60391 5.84935L3.80979 7.99966C3.92833 8.11553 4.01701 8.25841 4.06821 8.41606C4.11942 8.57372 4.13162 8.74144 4.10379 8.90485L3.58273 11.9411C3.578 11.9684 3.58103 11.9964 3.59146 12.0221C3.60189 12.0477 3.61932 12.0699 3.64174 12.0861C3.66417 12.1024 3.69071 12.112 3.71833 12.1139C3.74595 12.1158 3.77354 12.1099 3.79798 12.0968L6.52404 10.6636C6.6708 10.5863 6.83417 10.5459 7.00004 10.5459V10.5459Z" fill="#37352F"/>
</svg>

<svg xmlns="http://www.w3.org/2000/svg" viewBox="0 0 14 14" fill="none"><path fill="#37352F" d="M10.272 12.99c-.166 0-.33-.04-.476-.118l-2.727-1.434a.146.146 0 0 0-.138 0l-2.726 1.434a1.023 1.023 0 0 1-1.485-1.079l.521-3.036a.148.148 0 0 0-.044-.13L.993 6.474a1.023 1.023 0 0 1 .569-1.745l3.046-.443a.147.147 0 0 0 .111-.08l1.362-2.763a1.022 1.022 0 0 1 1.835 0l1.363 2.762a.149.149 0 0 0 .11.08l3.05.443a1.023 1.023 0 0 1 .568 1.746l-2.206 2.15a.148.148 0 0 0-.044.13l.52 3.036a1.024 1.024 0 0 1-1.005 1.197v.002ZM7 10.546c.166 0 .33.04.476.118l2.727 1.433a.14.14 0 0 0 .155-.011.142.142 0 0 0 .06-.145l-.522-3.036A1.025 1.025 0 0 1 10.19 8l2.207-2.15a.148.148 0 0 0-.083-.253l-3.048-.443a1.022 1.022 0 0 1-.77-.56L7.13 1.833a.148.148 0 0 0-.265 0L5.504 4.594a1.022 1.022 0 0 1-.77.56l-3.048.443a.147.147 0 0 0-.082.252L3.81 8a1.025 1.025 0 0 1 .294.906l-.521 3.036a.148.148 0 0 0 .215.156l2.726-1.433c.147-.078.31-.118.476-.118Z"/></svg>
